X:1
T:Title
L:1/8
Q:1/4=80
M:2/4
K:Eb
V:1 treble nm="Grand Piano"
V:1
 CC/C/ GG | G/F/E/D/ E/D/C | C/C/A A/A/A/G/ | A/G/A/B/ AG | CC/C/ GG | G/F/E/D/ E/D/C | %6
w: ????~???? * * * *||||||
 C/C/A A/A/A/G/ | A/G/A/B/ AG | GG/G/ cc | c/_d/c/B/ A/G/F | Fd d=B | GF/G/ FE | d=B GF | %13
w: |||||||
 ED/F/ E/D/C |] %14
w: |

